X: 10532
T: SCOTCH AIR
C:
%R: reel
B: Elias Howe "The Musician's Companion" Part 1 1842 p.53 #2
S: http://imslp.org/wiki/The_Musician's_Companion_(Howe,_Elias)
Z: 2015 John Chambers <jc:trillian.mit.edu>
M: C|
L: 1/8
K: Bb	% and Gm
% - - - - - - - - - - - - - - - - - - - - - - - - -
A |\
B2(d/c/B) fBbB | B2(d/c/B) AFcF |\
B2(d/c/B) fBbB | cAFA BGG :|\
B |\
(DG)BG dGBG | (DG).B.G AFcA |
(DG)BG dGBG | cAFA BGGB |\
(DG)BG dGBG | (DG)BG AFcA |\
(DG).B.d BdBG | cAFA BGG |]
% - - - - - - - - - - - - - - - - - - - - - - - - -


